X:1
T:N 3. THEME.
T: 50. CANZONETTA
T:L. van BEETHOVEN (1770-1827
T: Il est des phrases musicales prenantes, séduisantes, qui obsèdent la memoire dès qu'on les a entendues, parce qu'elles plaisent, qu'elles charment a un très grand degré,, la melodie qui suit est de celles-la. Quoi de plus gracieux, de plus mélodieux et de plus simple, en même temps, que ce petit chef- d'reuvre qui porte, dans ses moindres details, l'empreinte d'une inspiration puissante, apanage des seuls hommcs de génie. Dans la deuxième partie qui reprend, dans la nuance piano, le thème initial, la partie de basse, brodant un contrepoint des plus intéressants, sera jouée en legato; la fin sera éxecutée sur le Gᵈ Jeu, une octave plus haut.    
T:Louis Raffy Organistes Célébres Grands Maitres Classiques - VOLUME I
T:Louis Raffy Organistes Célébres Grands Maitres Classiques - VOLUME I
C:F. SCHUBERT (1797-1828)
Z:Louis Raffy Organistes Célébres Grands Maitres Classiques - VOLUME I
%%score { ( 1 3 ) | ( 2 4 ) }
L:1/8
Q:1/4=80
M:2/4
K:Eb
V:1 treble nm="Organ" snm="Org."
V:3 treble 
V:2 bass 
V:4 bass 
V:1
!mf!"^Allegro moderato" !4!B | (!5!c2 !5!Bc) | (!4!BA) (!4!GA) | (GF) (!2!EG) | (G2 F)!3!F | %5
 (!4!G2 !5!=A2) |!<(! (!3!B2!<)! !4!c)!5!e | (d2 c2) |!>(! !4!B2-!>)! B !4!B- | (B2 GE) | %10
 (!5!e2 !4!c!2!A) | (!5!cB)"^" (!3!AG) | (!4!G2 F)!2!F- | (!1!F2!<(! G!<)!A) | %14
!<(! (!4!B!<)!!1!c!3!d!4!e) |"_" (!1-2!E2 [DF]2) | (!5!A2 !4!G)!f! !2!G | (B2 GE) | (e2 cA) | %19
 (cB) (AG) | (G2 F)F- |!<(! (F2 GA)!<)! | (!5!B!3!cde) |"^" (!1-2!E2!>(! G!>)!F) | E2 z (!3!B | %25
 c2 Bc) | (BAGA) | (GFEG) | (!3!G2 !2!F)!1!F"_" | (G2 =A2) |!<(! (B2!<)! ce) | (d2 c2) | %32
!>(! !2!B2-!>)! B !4!B- |!f! (B2 GE) | (e2 cA) | (!5!cB)!>(! (AG) | (!4!G2!>)! F)F- | (F2 GA) | %38
!<(! (!5!B!3!cd!5!e)!<)! | E2[Q:1/4=50]"^poco rit."!>(! G!>)!F | E2- E z | !1!!4![G,E]4 |] %42
V:2
 z | !2!A,2 G,2 | B,4- | B,4 | B,4 | B,2 !2!F,2 | B,4- | B,2 =A,2 | B,2 z2 | !1!B,4 | [A,C]4 | %11
 !1!B,4- | B,2- B, z | ((!3![A,B,-D]4 | !4![G,B,E]2)) z2 | (G,2 A,B,) | (C2 B,) z | B,4 | C4 | %19
 B,4- | B,2- B, z | !1!D,4 | !2!E,2 z2 | !1!G,2 !2!A,2 | !1!G,2 z!p! (!5!G, | !4!A,!2!CE!3!G,) | %26
 (F,B,E,B,) | (A,B,!2!G,!3!E,) | !5!B,, !1-3!B,2 !1!D | (!2!ED!4!CF) | (!3!DB,!2!E!4!C) | %31
 (F!5!F,G,=A,) | (!1!B,!2!F,!5!B,,) z | !1!B,4 | C4 | B,4 | B,2- B, z | !1!D,4 | !2!E,2 z2 | %39
 (!1!G,2 !2!A,2) | G,2- G, z | [E,,B,,]4 |] %42
V:3
 x | E4 | !1!F2 !2!E2 | D2 E2 | E2 D z | E4 | F2 G2 | F2 !2!E2 | !1!D2- D z | E4- | E4- | E2 E2 | %12
 (!2!E2 D) z | x4 | x4 | x4 | !2!E2- E z | E4- | E4- | E2 E2 | (E2 D) z | B,4- | B, z z2 | E2 D2 | %24
 E2 x2 | x4 | x4 | x4 | x4 | x4 | x4 | x4 | x4 | E4- | E4- | E2 E2 | (E2 D) z | B,4- | B, z z2 | %39
 (E2 D2) | E2- E x | x4 |] %42
V:4
 x | x4 | !5!D,2 !4!E,2 | !2!A,2 G,E, | B,2- B,,2 | !3!E,2 !5!C,2 | !4!D,2 !3-4!E,2 | !3!F,4 | %8
 B,,2 B, A, | !3!G,4 | x4 | !3!G,2 E,2 | B,,2- B,,2 | x4 | x4 | B,,4 | E,2- E, x | G,4 | A,4 | %19
 G,2 E,2 | B,,2- B,, x | !4!A,,4 | !5!G,,2 x2 | B,,4 | !2!E,2 x2 | x4 | x4 | x4 | x4 | x4 | x4 | %31
 x4 | x4 | !3!G,4 | A,4 | (G,2 !5!E,2) | (B,2 B,,) x | !4!A,,4 | !5!G,,2 x2 | B,,4 | E,2- E, x | %41
 x4 |] %42

